packages/sights/assets/overlays/Fh972HlF.svg

<svg width="500" height="375" viewBox="0 0 500 375" fill="none" xmlns="http://www.w3.org/2000/svg">
<path d="M86.0194 5L72.9395 44.16C72.9395 44.16 352.94 33.16 415.52 44.16L405.94 5" stroke="white" stroke-miterlimit="10"/>
<path d="M6.93945 231.27C6.93945 231.27 483.68 229.89 492.94 234.02" stroke="white" stroke-miterlimit="10"/>
<path d="M6.93945 137.02C6.93945 137.02 393.56 129.46 492.94 137.02" stroke="white" stroke-miterlimit="10"/>
<path d="M6.93945 39.1095C6.93945 39.1095 65.9394 30.4895 77.2194 31.3595" stroke="white" stroke-miterlimit="10"/>
<path d="M412.471 31.75C412.471 31.75 487.811 37.75 492.941 40.95" stroke="white" stroke-miterlimit="10"/>
<path d="M85.0295 294.86C85.0295 294.86 70.6595 351.75 45.9395 368.23" stroke="white" stroke-miterlimit="10"/>
<path d="M411.551 294.86C411.551 294.86 424.391 353.95 449.461 369.5" stroke="white" stroke-miterlimit="10"/>
<path d="M6.93945 267.65L34.5794 270.09L77.9994 292.11L104.6 298.53" stroke="white" stroke-miterlimit="10"/>
<path d="M79.5703 312.61L153.821 330.32C153.821 330.32 151.071 358.76 158.401 361.97H177.051C177.051 361.97 183.931 359.97 186.691 332.16" stroke="white" stroke-miterlimit="10"/>
<path d="M153.82 330.32L176.82 330.21L186.69 333.07L311.5 333.61L314.86 330.55L344.44 329.71" stroke="white" stroke-miterlimit="10"/>
<path d="M385.721 300.74L419.191 292.95L456.111 270.7L492.941 269.33" stroke="white" stroke-miterlimit="10"/>
<path d="M176.83 330.21C176.83 330.21 175.56 353.37 180.26 352.91C180.26 352.91 183.86 355.47 186.54 333.61" stroke="white" stroke-miterlimit="10"/>
<path d="M321.58 330.36C321.58 330.36 322.51 350.2 319.45 353.64C319.45 353.64 314.63 357.53 312.34 332.46C312.34 332.46 313.14 361.81 319.98 361.81C320.75 361.81 338.98 362.43 338.98 362.43L342.98 358.3C342.98 358.3 346.35 348.97 344.51 329.71L416.45 312.61" stroke="white" stroke-miterlimit="10"/>
<path d="M51.26 278.55C51.26 278.55 39.02 325.75 6 322.07" stroke="white" stroke-miterlimit="10"/>
<path d="M445.199 277.28C445.199 277.28 454.279 329.41 493.949 321.15" stroke="white" stroke-miterlimit="10"/>
<path d="M6 151.47H24.34L28.63 157.89C28.63 157.89 53.46 217.51 66.53 227.83" stroke="white" stroke-width="0.25" stroke-miterlimit="10"/>
<path d="M131.19 229.43C115.83 195.75 105.74 154.68 105.74 154.68L108.74 146.68H197.48L201.84 152.88L210.78 229.46" stroke="white" stroke-width="0.25" stroke-miterlimit="10"/>
<path d="M278.4 228.29L284.83 153.75C284.83 153.75 287.58 147.56 287.83 146.64L377.25 148.02C378.638 149.709 379.94 151.468 381.15 153.29C381.38 153.98 368.08 216.81 358.22 229.42" stroke="white" stroke-width="0.25" stroke-miterlimit="10"/>
<path d="M492.94 151.47C492.94 151.47 460.47 149.41 460.7 150.09C460.93 150.77 456.8 157.43 456.8 157.43C456.8 157.43 442.8 196.43 420.34 231.05" stroke="white" stroke-width="0.25" stroke-miterlimit="10"/>
<path d="M381.131 153.3L457.441 156.39" stroke="white" stroke-width="0.25" stroke-miterlimit="10"/>
<path d="M377.23 148.03C377.23 148.03 358.66 215.9 353.16 226.91" stroke="white" stroke-width="0.25" stroke-miterlimit="10"/>
<path d="M201.82 152.85L284.83 153.76" stroke="white" stroke-width="0.25" stroke-miterlimit="10"/>
<path d="M197.459 146.65C197.459 146.65 203.879 214.76 207.549 225.99" stroke="white" stroke-width="0.25" stroke-miterlimit="10"/>
<path d="M108.721 146.65C108.721 146.65 123.631 211.09 133.951 227.83" stroke="white" stroke-width="0.25" stroke-miterlimit="10"/>
<path d="M28.6309 157.89C30.7609 157.89 105.741 154.68 105.741 154.68" stroke="white" stroke-width="0.25" stroke-miterlimit="10"/>
</svg>

<svg width="500" height="375" fill="none" xmlns="http://www.w3.org/2000/svg"><path d="M86.02 5 72.94 44.16s280-11 342.58 0L405.94 5M6.94 231.27s476.74-1.38 486 2.75M6.94 137.02s386.62-7.56 486 0" stroke="#fff" stroke-miterlimit="10"/><path d="M6.94 39.11s59-8.62 70.28-7.75M412.471 31.75s75.34 6 80.47 9.2M85.03 294.86s-14.37 56.89-39.09 73.37M411.551 294.86s12.84 59.09 37.91 74.64M6.94 267.65l27.64 2.44L78 292.11l26.6 6.42" stroke="#fff" stroke-miterlimit="10"/><path d="m79.57 312.61 74.251 17.71s-2.75 28.44 4.58 31.65h18.65s6.88-2 9.64-29.81" stroke="#fff" stroke-miterlimit="10"/><path d="m153.82 330.32 23-.11 9.87 2.86 124.81.54 3.36-3.06 29.58-.84M385.721 300.74l33.47-7.79 36.92-22.25 36.83-1.37" stroke="#fff" stroke-miterlimit="10"/><path d="M176.83 330.21s-1.27 23.16 3.43 22.7c0 0 3.6 2.56 6.28-19.3M321.58 330.36s.93 19.84-2.13 23.28c0 0-4.82 3.89-7.11-21.18 0 0 .8 29.35 7.64 29.35.77 0 19 .62 19 .62l4-4.13s3.37-9.33 1.53-28.59l71.94-17.1M51.26 278.55S39.02 325.75 6 322.07M445.199 277.28s9.08 52.13 48.75 43.87" stroke="#fff" stroke-miterlimit="10"/><path d="M6 151.47h18.34l4.29 6.42s24.83 59.62 37.9 69.94M131.19 229.43c-15.36-33.68-25.45-74.75-25.45-74.75l3-8h88.74l4.36 6.2 8.94 76.58M278.4 228.29l6.43-74.54s2.75-6.19 3-7.11l89.42 1.38a64.523 64.523 0 0 1 3.9 5.27c.23.69-13.07 63.52-22.93 76.13M492.94 151.47s-32.47-2.06-32.24-1.38c.23.68-3.9 7.34-3.9 7.34s-14 39-36.46 73.62M381.131 153.3l76.31 3.09" stroke="#fff" stroke-width=".25" stroke-miterlimit="10"/><path d="M377.23 148.03s-18.57 67.87-24.07 78.88M201.82 152.85l83.01.91M197.459 146.65s6.42 68.11 10.09 79.34M108.721 146.65s14.91 64.44 25.23 81.18M28.63 157.89c2.13 0 77.111-3.21 77.111-3.21" stroke="#fff" stroke-width=".25" stroke-miterlimit="10"/></svg>
